X: 4167
T: Blue Mountains Of New South Wales, The
R: jig
M: 6/8
K: Adorian
e|:edB ABG|EFG AFD|BEE dEE|cBA BGE|
gea fdf|ece fdA|EFG ABA|dBG A2e:|
|:geg abg|fgf ecA|geg abg|fdf e2e|
[1 geg abg|fgf ecA|EFG ABA|dBG A2e:|
[2 aba ~g3|~f3 ecA|EFG ABA|dBG A2D||
|:EDE G2D|EFG FEF|GAB cBA|BGB AFD|
EDE G2D|EFG FEF|GAB cBA|1 dBG A2D:|2 dBG A2A||
|:B/c/de gcg|bcg acg|e/f/gf efd|BAG AFD|
B/c/de gcg|bcg acg|e/f/gf efd|1 BAG A2A:|2 BAG A2e||

